src/assets/duotone/Framer.svg

<svg width="24" height="24" viewBox="0 0 24 24"  xmlns="http://www.w3.org/2000/svg">
<path d="M4.5 10.4901V16.4301C4.5 16.7401 4.64 17.0401 4.87 17.2401L10.23 21.8301C10.93 22.4301 12 21.9301 12 21.0201V16.9201H16.91C17.86 16.9201 18.34 15.7701 17.67 15.0901L12 9.42008H5.57001C4.98001 9.41008 4.5 9.89008 4.5 10.4901Z" />
<path opacity="0.4" d="M18.4298 1.91016H7.0898C6.1398 1.91016 5.65979 3.06016 6.32979 3.74016L11.9998 9.41016H18.4298C19.0198 9.41016 19.4998 8.93015 19.4998 8.34015V2.98015C19.4998 2.39015 19.0198 1.91016 18.4298 1.91016Z" />
</svg>

<?xml version="1.0" encoding="UTF-8"?>
<svg width="24" height="24" viewBox="0 0 24 24" xmlns="http://www.w3.org/2000/svg">
 <path d="m4.5 10.49v5.94c0 0.31 0.14 0.61 0.37 0.81l5.36 4.59c0.7 0.6 1.77 0.1 1.77-0.81v-4.1h4.91c0.95 0 1.43-1.15 0.76-1.83l-5.67-5.67h-6.43c-0.59-0.01-1.07 0.47-1.07 1.07z"/>
 <path d="m18.43 1.9102h-11.34c-0.95 0-1.43 1.15-0.76001 1.83l5.67 5.67h6.43c0.59 0 1.07-0.48001 1.07-1.07v-5.36c0-0.59-0.48-1.07-1.07-1.07z" opacity=".4"/>
</svg>
